X:1802
T:"The White Cockade"   (march)   1802
C:Unattributed
B:O'Neill's Music Of Ireland (The 1850) Lyon & Healy, Chicago, 1903 edition
Z:FROM O'NEILL'S TO NOTEWORTHY, FROM NOTEWORTHY TO ABC, MIDI AND .TXT BY VINCE
BRENNAN July 2003 (HTTP://WWW.SOSYOURMOM.COM)
I:abc2nwc
M:4/4
L:1/8
K:G
(GA) B2(Bd) (cB)|(AG) BABc B2|(gf) (ed)(cB) (cB)|(AG) E2AA A2|
GA B2(Bd) (cB)|(AG) (Bd)(ef) (gf)|(ga) (ba)(gf) (ag)|(fe) d2B2B2:|
(Bc) .d2.B2.g2|.B2(dc) (de) d2|(Bc) d2(Bd) g2|(fg) a2AA A2|
(GA) B2(Bd) (cB)|(AG) (Bd)(ef) (gf)|(ga) (ba)(gf) (ag)|(fe) d2B2B2:|

